X:1
T:Title
L:1/8
Q:1/4=100
M:6/8
K:G
V:1 treble nm="Church Organ, Staff"
V:1
 D D2 E G2 | G A2 A B2 | B B2 A G2 | A B2 d d2 | d d2 c B2 | A G2 A B2 | A G2 G G2 | A F2 E D2 | %8
w: By~N.~B.~Warren * * *||||||||
 B B2 A G2 | AAd- d/ z/ d2 | B c2 BAG | FFE F G2- | G3 z3 |] %13
w: |||||

